X:1
T:Sieben Haupt-und Todtsünd
T:André Vierendeels
T:Melody by Georg Vogler (1625) (Soprano voice)
T:Source : Catechismus---Würzburg---J.Volmari---1652. Editor : André Vierendeels (07/10/17).
T:Notes : Original clef : C1, other voices supplied editorially Original note values have been halved Text Middle German
T:Sieben Haupt-und Todtsünd
T:©
T:©
C:André Vierendeels
Z:©
%%score [ 1 2 3 ]
L:1/8
Q:1/4=120
M:2/2
K:C
V:1 treble nm="Soprano" snm="S"
V:2 treble-8 nm="Tenor" snm="T"
V:3 bass nm="Bass" snm="B"
V:1
"^1)" d4 B2 G2 | A2 B2 c2 A2 | G4 z4 | G4 A2 B2 | c2 B2 A2 A2 | !fermata!G4 G4 | A2 B2 c2 d2 | %7
w: Sie- ben Haupt-|und Todt- sünd man|zehlt,|wel- che der|bö- se Geist er|wehlt, als|Haupt- leuth sei- ner|
w: Die sie- ben|wa- ren vor- be-|deut|als Mo- ab,|Ge- bal, Am- mo-|nit, durch|sie- ben Völ- cher|
 d2 ^c2 d4 | z4 d4 | B2 d2 c4 | B2 A4 G2 | A4 z4 | A4 B2 c2 | d2 B2 A2 A2 | G4 z4 | G4 E2 G2 | %16
w: gros- sen Macht,|und|Rit- ter- schafft|die er hoch|acht,|nach wel- chen|al- ler Sün- den|Heer,|mit hauf- fen|
w: vor der Zeit:|A-|ga- re- ner,|A- ma- le-|chit,|dann auch durch|die As- sy- ri-|er|und letz- lich|
 F4 F2 E2- | E2 D2 !fermata!E4 |] %18
w: auss- bricht mehr|_ und mehr.|
w: durch die Ty-|* ri- er.|
V:2
"^2)""^1)" d4 d2 d2 | d2 B2 A2 c2 | d4 z4 | G4 d2 d2 | e2 d2 d2 d2 | !fermata!B4 d4 | d2 d2 c2 B2 | %7
w: Sie- ben Haupt-|und Todt- sünd man|zehlt,|wel- che der|bö- se Geist er-|wehlt, als|Haupt- leuth sei- ner|
w: Mo- ab be-|deut Fratz, Fül- le-|rey,|weil Loth so|trun- cken het- te|bey sei-|ner Toch- ter Mo-|
 e2 e2 d4 | z4 d4 | d2 d2 e4 | d2 f4 B2 | A4 z4 | d4 d2 e2 | f2 d2 c2 c2 | B4 z4 | B4 c2 B2 | %16
w: gros- sen Macht,|und|Rit- ter- schaft|die er hoch|acht,|nach wel- chen|al- ler Sün- den|Heer,|mit hauf- fen|
w: ab er- zeugt,|wie|uns die Schrifft|sagt und nicht|leucht.|Der A- ga-|ren be- deut Un-|zucht,|heist auch ein|
 A4 c2 G2 | F4 !fermata!E4 |] %18
w: auss- bricht mehr|und mehr.|
w: Fremb- ding in|der Flucht.|
V:3
"^3)""^1)""^4)" G,4 D,2 G,,2 | D,2 G,2 A,2 A,2 | G,4 z4 | G,4 F,2 G,2 | C,2 G,2 ^F,2 F,2 | %5
w: Sie- ben Haupt-|und Todt- sünd man|zehlt,|wel- che der|bö- se Geist er-|
w: Dann wen die|Un- zucht zu sich|ziecht|ist frembd vor|Gott, die Tu- gend|
 !fermata!G,4 G,4 | ^F,2 G,2 C,2 G,2 | A,2 A,2 D,4 | z4 D,4 | G,2 G,2 C,4 | G,2 F,4 G,2 | D,4 z4 | %12
w: wehlt, als|Haupt- leuth sei- ner|gros- sen Macht,|und|Rit- ter- schaft|die er hoch|acht,|
w: fliecht: Un-|zucht in stund macht|gleich dem Hund,|frist|Ehr- bar- keit|bisz auff den|Grund.|
 F,4 G,2 C,2 | D,2 G,2 F,2 F,2 | G,4 z4 | G,4 C,2 G,2 | D,4 F,2 G,2 | A,4 !fermata!E,4 |] %18
w: nach wel- chen|al- ler Sün- den|Heer,|mit hauf- fen|auss- bricht mehr|und mehr.|
w: Ab- neh- men|dann auch Ge- bal|heist:|der Geitz macht|kei- nen Men-|sche feist.|

